icon/pk/arena.svg

<svg width="48" height="48" fill="none" xmlns="http://www.w3.org/2000/svg"><path d="M44 26 24 36 4 26l20-10 20 10Z" stroke="#000" stroke-width="4" stroke-miterlimit="2" stroke-linejoin="round"/><path d="m24 7 20 10-20 10L4 17 24 7Z" stroke="#000" stroke-width="4" stroke-miterlimit="2" stroke-linejoin="round"/><path d="M44 26v8L24 44 4 34v-8l20 10 20-10Z" fill="#2F88FF" stroke="#000" stroke-width="4" stroke-miterlimit="2" stroke-linecap="round" stroke-linejoin="round"/><path d="M44 14v12M4 26V14M24 36V24M24 16V4" stroke="#000" stroke-width="4" stroke-miterlimit="2" stroke-linecap="round" stroke-linejoin="round"/></svg>

<svg viewBox="0 0 48 48" fill="none" xmlns="http://www.w3.org/2000/svg" height="1em" width="1em">
  <path d="M44 26L24 36L4 26L24 16L44 26Z" stroke="black" stroke-width="4" stroke-miterlimit="2" stroke-linejoin="round"/>
  <path d="M24 7L44 17L24 27L4 17L24 7Z" stroke="black" stroke-width="4" stroke-miterlimit="2" stroke-linejoin="round"/>
  <path d="M44 26V34L24 44L4 34V26L24 36L44 26Z" fill="#2F88FF" stroke="black" stroke-width="4" stroke-miterlimit="2" stroke-linecap="round" stroke-linejoin="round"/>
  <path d="M44 14V17V26" stroke="black" stroke-width="4" stroke-miterlimit="2" stroke-linecap="round" stroke-linejoin="round"/>
  <path d="M4 26V17V14" stroke="black" stroke-width="4" stroke-miterlimit="2" stroke-linecap="round" stroke-linejoin="round"/>
  <path d="M24 36V24" stroke="black" stroke-width="4" stroke-miterlimit="2" stroke-linecap="round" stroke-linejoin="round"/>
  <path d="M24 16V4" stroke="black" stroke-width="4" stroke-miterlimit="2" stroke-linecap="round" stroke-linejoin="round"/>
</svg>
